svgs/regular/quote-left.svg

<svg xmlns="http://www.w3.org/2000/svg" viewBox="0 0 448 512"><!--! Font Awesome Pro 6.6.0 by @fontawesome - https://fontawesome.com License - https://fontawesome.com/license (Commercial License) Copyright 2024 Fonticons, Inc. --><path d="M0 216C0 149.7 53.7 96 120 96l16 0c13.3 0 24 10.7 24 24s-10.7 24-24 24l-16 0c-39.8 0-72 32.2-72 72l0 10c5.1-1.3 10.5-2 16-2l64 0c35.3 0 64 28.7 64 64l0 64c0 35.3-28.7 64-64 64l-64 0c-35.3 0-64-28.7-64-64l0-32 0-32 0-72zm48 72l0 32 0 32c0 8.8 7.2 16 16 16l64 0c8.8 0 16-7.2 16-16l0-64c0-8.8-7.2-16-16-16l-64 0c-8.8 0-16 7.2-16 16zm336-16l-64 0c-8.8 0-16 7.2-16 16l0 32 0 32c0 8.8 7.2 16 16 16l64 0c8.8 0 16-7.2 16-16l0-64c0-8.8-7.2-16-16-16zM256 320l0-32 0-72c0-66.3 53.7-120 120-120l16 0c13.3 0 24 10.7 24 24s-10.7 24-24 24l-16 0c-39.8 0-72 32.2-72 72l0 10c5.1-1.3 10.5-2 16-2l64 0c35.3 0 64 28.7 64 64l0 64c0 35.3-28.7 64-64 64l-64 0c-35.3 0-64-28.7-64-64l0-32z"/></svg>

<svg xmlns="http://www.w3.org/2000/svg" viewBox="0 0 448 512"><!--! Font Awesome Pro 6.4.2 by @fontawesome - https://fontawesome.com License - https://fontawesome.com/license (Commercial License) Copyright 2023 Fonticons, Inc. --><path d="M0 216C0 149.7 53.7 96 120 96h16c13.3 0 24 10.7 24 24s-10.7 24-24 24H120c-39.8 0-72 32.2-72 72v10c5.1-1.3 10.5-2 16-2h64c35.3 0 64 28.7 64 64v64c0 35.3-28.7 64-64 64H64c-35.3 0-64-28.7-64-64V320 288 216zm48 72v32 32c0 8.8 7.2 16 16 16h64c8.8 0 16-7.2 16-16V288c0-8.8-7.2-16-16-16H64c-8.8 0-16 7.2-16 16zm336-16H320c-8.8 0-16 7.2-16 16v32 32c0 8.8 7.2 16 16 16h64c8.8 0 16-7.2 16-16V288c0-8.8-7.2-16-16-16zM256 320V288 216c0-66.3 53.7-120 120-120h16c13.3 0 24 10.7 24 24s-10.7 24-24 24H376c-39.8 0-72 32.2-72 72v10c5.1-1.3 10.5-2 16-2h64c35.3 0 64 28.7 64 64v64c0 35.3-28.7 64-64 64H320c-35.3 0-64-28.7-64-64V320z"/></svg>
